X: 61
T: JIG: Stick Across the Hob
T: Tom Billy's Whelan's / O'Keeffe's Morrison's
C: C: Trad.; S: Pádraig O'Keeffe & Denis Murphy
C: Set Leaders: Oliushka, Anton
Z: Anton Zille ed.; Bregolas at The Session
N: https://thesession.org/members/26966/sets/76537
R: Jig
M: 6/8
L: 1/8
Q: 3/8=116
K: Emin
|:~E3 ~B3|ABB AFD|EDE ~B3|eBB AFD|
D~E2 ~B3|ABB AFA|BAF ABd|1 edB AFD:|2 edB ABd||
e3 efa|baf fed|Bee e3|a/b/af dfa|
b2b a2f|efe def|g2f fed|BAB dBA|
Bee fee|bee fed|Bee ede|faf dfa|
b2b a2f|efe def|g2f fed|BAB dBA||
|:g2g f2f|efe d2e|fef def|edB dBA|
gfe fed|edB d2e|~f3 def|edB AFD:||

